assets/icons/action/share_poll.svg

<?xml version="1.0"?><svg xmlns="http://www.w3.org/2000/svg" width="52" height="52" viewBox="0 0 52 52"><path fill="#fff" d="m46.8 2h-41.6c-1.8 0-3.2 1.4-3.2 3.2v6.4c0 1.8 1.4 3.2 3.2 3.2h41.6c1.8 0 3.2-1.4 3.2-3.2v-6.4c0-1.8-1.4-3.2-3.2-3.2z m-20 9.6v-6.4h20v6.4h-20z m20 8h-41.6c-1.8 0-3.2 1.4-3.2 3.2v6.4c0 1.8 1.4 3.2 3.2 3.2h41.6c1.8 0 3.2-1.4 3.2-3.2v-6.4c0-1.8-1.4-3.2-3.2-3.2z m-27.2 9.6v-6.4h27.2v6.4h-27.2z m27.2 8h-41.6c-1.8 0-3.2 1.4-3.2 3.2v6.4c0 1.8 1.4 3.2 3.2 3.2h41.6c1.8 0 3.2-1.4 3.2-3.2v-6.4c0-1.8-1.4-3.2-3.2-3.2z m-12.8 9.6v-6.4h12.8v6.4h-12.8z"></path></svg>

<svg xmlns="http://www.w3.org/2000/svg" x="0px" y="0px"
	 width="52px" height="52px" viewBox="0 0 52 52" enable-background="new 0 0 52 52" xml:space="preserve">
<g>
	<g>
		<path fill="#FFFFFF" d="M46.8,2H5.2C3.4,2,2,3.4,2,5.2v6.4c0,1.8,1.4,3.2,3.2,3.2h41.6c1.8,0,3.2-1.4,3.2-3.2V5.2
			C50,3.4,48.6,2,46.8,2z M26.8,11.6V5.2h20v6.4H26.8z"/>
	</g>
	<g>
		<path fill="#FFFFFF" d="M46.8,19.6H5.2C3.4,19.6,2,21,2,22.8v6.4c0,1.8,1.4,3.2,3.2,3.2h41.6c1.8,0,3.2-1.4,3.2-3.2v-6.4
			C50,21,48.6,19.6,46.8,19.6z M19.6,29.2v-6.4h27.2v6.4H19.6z"/>
	</g>
	<g>
		<path fill="#FFFFFF" d="M46.8,37.2H5.2c-1.8,0-3.2,1.4-3.2,3.2v6.4C2,48.6,3.4,50,5.2,50h41.6c1.8,0,3.2-1.4,3.2-3.2v-6.4
			C50,38.6,48.6,37.2,46.8,37.2z M34,46.8v-6.4h12.8v6.4H34z"/>
	</g>
</g>
</svg>
